X:1
T:Harvest Bells
T:J. M. Hunt
T:Harvest Bells
T:Public Domain
T:Public Domain
C:J. M. Hunt
Z:Public Domain
%%score ( 1 2 ) ( 3 4 )
L:1/8
M:6/8
K:Bb
V:1 treble 
V:2 treble 
V:3 bass 
V:4 bass 
V:1
 [DF] | [Fd]2 [Ec] [DB]2 [FA] | [EG] [GB]4 [FB] | [Fc]2 [Fc] [FB]2 [Fc] | [Fd]3- [Fd]2 [DF] | %5
w: 1.~O|Christ- ian! do not|fal- ter, The|har- vest field is|white, * And|
w: 2.~O|reap- ers! quick- ly|ga- ther The|pre- cious gold- en|sheaves, * That|
w: 3.~So|few we find the|lab- ’rers, The|har- vest, oh, how|great! * Then|
 [Fd]2 [Ec] [DB]2 [FA] | [EG] [GB]4 [GB] | [Fc]2 F [Fd]2 [Ec] | [DB]3- [DB]2 ||"^Refrain" [FB] | %10
w: ma- ny souls are|sink- ing In-|to e- ter- nal|The *|har-|
w: day and night are|fall- ing Like|au- tumn’s with- ered|||
w: slum- ber not, dear|Christ- ian, For|soon ’twill be too|||
 [Fc]2 [F=B] [Fc]2 [Fd] | [Fe]3 [Fc]2 [Fe] | [Fd]2 [Ec] [DB]2 [Fd] | [Fc]3- [Fc]2 [DF] | %14
w: vest bells are ring-|ing, We hear|them night and day;|The * har-|
w: ||||
w: ||||
 [Fd]2 [Fc] (Bc)[Fd] | [Ge]3 [Ge]2 [Ge] | [Fd]3 z2 [Fd] | [Fc]3 z2 [Fc] | [Fd]3- [Fd]2 [DF] | %19
w: vest bells are * peal-|Go work, and|watch, and|pray; The|har- * vest|
w: |||||
w: |||||
 [Fd]2 [Fc] (Bc)[Fd] | [Ge]3 [EG]2 [Ge] | [Fd] z2 [Ec] z2 | [DB]3- [DB]2 |] %23
w: bells are peal- * ing,|work, watch, pray.|||
w: ||||
w: ||||
V:2
 x | x6 | x6 | x6 | x6 | x6 | x6 | x2 F x3 | x5 || x | x6 | x6 | x6 | x6 | x3 F2 x | x6 | x6 | x6 | %18
w: |||||||night.|||||||ing,||||
w: |||||||leaves.|||||||||||
w: |||||||late.|||||||||||
 x6 | x3 F2 x | x6 | x6 | x5 |] %23
w: |Go||||
w: |||||
w: |||||
V:3
 [B,,B,] | [B,,B,]2 [B,,B,] [B,,B,]2 [B,,B,] | [E,B,] [E,B,]4 [B,,B,] | %3
w: ~|~ ~ ~ ~|~ ~ ~|
 [F,A,]2 [F,A,] [D,B,]2 [F,A,] | B,3- B,2 [B,,B,] | [B,,B,]2 [B,,B,] [B,,B,]2 [D,B,] | %6
w: ~ ~ ~ ~|~ * ~|~ ~ ~ ~|
 [E,B,] [E,B,]4 [E,B,] | [F,A,]2 [F,C] [F,B,]2 [F,A,] | [B,,B,]3- [B,,B,]2 || [B,,B,] | %10
w: ~ ~ ~|~ ~ ~ ~|~ *|~|
 [F,A,]2 [F,^G,] [F,A,]2 [F,B,] | [F,C]3 [F,A,]2 [F,C] | B,2 [F,A,] B,2 [B,,B,] | %13
w: ~ ~ ~ ~|~ ~ ~|~ ~ ~ ~|
 [F,A,]3- [F,A,]2 [F,B,] | B,2 [F,A,] ([D,B,][F,A,])B, | [E,B,]3 [E,B,]2 z | z [B,,B,] [B,,B,]3 z | %17
w: ~ * ~|~ ~ ~ * Go|watch, and|pray; *|
 z [F,A,] [F,A,]3 z | z [B,,B,] [B,,B,]3 [F,B,] | B,2 [F,A,] ([D,B,][F,A,])B, | %20
w: |||
 [E,B,]3 [E,B,]2 [E,B,] | [F,B,] z2 [F,A,] z2 | [B,,B,]3- [B,,B,]2 |] %23
w: |||
V:4
 x | x6 | x6 | x6 | B,3- B,2 x | x6 | x6 | x6 | x5 || x | x6 | x6 | B,2 B,2 x2 | x6 | B,2 x B, x2 | %15
w: ||||~ *||||||||~ ~||work, and|
 x6 | x6 | x6 | x6 | B,2 x B, x2 | x6 | x6 | x5 |] %23
w: ||||||||

